X:1
T: Oh Ono Chrio
T: Air
M: 3/4
L: 1/4
K: Dmaj
|:u(A,/B,/)|D2 (D/E/)|{E/}F2 (D/E/)|F2 A,|{A,/}B,2 (A,/B,/)|
D{E/}(D d)| B2 (3(A/B/d/)| (B/A/G/) (F/E/D/)|A2 (A,/B,/)|D2 (D/E/)|
{E/}F2 (D/E/)|F2 A,|{A,/}B,2 d|B>(A F/B/)| {B/}A>(F E/A/)|(F>E) (F/E//D//)|
{E/}D2:||: (d/e/)|f2 (e/!uppermordent!d/)|B2 (A//B//d//e//)|(f>e) (d/f/)|
(f e) (d/B/)|(B/A/G/F/) (B//c//d/)|!uppermordent!B2 A|
(B/A/G/) (F/E/D/)| A2 (A,/B,/)| D2 (d/B/)| {B/}A>(G F/E/)|
D>E F/A/| {A/}B2 (A/B//d//)| B>(A F/B/)|{B/}A> (F E/A/)|
(F> E) (F/E//D//)|{E/}D2:|
